X: 36384
T: Sean Reid's
R: reel
M: 4/4
K: Gmajor
|:DG ~G2 BG ~G2|cAFA dG{A}GF|DG ~G2 B3 c|dBFG AGGF|
DGGA ~B3 G|~c3 A dcAB|~g3 a gfde|1 fdcA {B}AGGF:|2 fdcA {B}AG G2||
|:~g3 f {a}gfde|~f3 e fdcA|gfga gfde|fdcA {B}AGGA|
~g3 f {a}gfde|~f3 g fdef|~g3 a (3bag {b}ag|fdcA {B}AGGF:|

